X: 30
T: Dancing Song (b)
C: Teton Sioux band 1911-1914
N: Derived from sioux030.krn
O: South Dakota, U.S.A.
N: Teton Sioux Music by Frances Densmore, 1918
Z: transcribed to **kern format by Craig Sapp
L: 1/16
M: 2/4
Q: 1/4=58
K: D clef=bass
%%linebreak <none>
A2 A2 A F F2 | 
F E E D E D D2 | 
D2 D2 D B, B,2 | 
D D D2 F2 F2 | 
F E E2 E D D2 | 
D B, B,2 B,2 A,2 ||  
[M:3/4]A, F, F,2 F, E, E, D, F,2 F,2 ||  
[M:2/4]A, A, A,2 A, F, F,2 | 
F, E, E, D, E, D, D,2 | 
D, C, D,2 D, C, D,2 | 
D D D2 F F F2 | 
F E E2 E D D2 | 
D B, B,2 B,2 A,2 ||  
[M:3/4]A, F, F,2 F, E, E, D, F,2 F,2 ||  
[M:2/4]A, A, A,2 A, F, F,2 | 
F, E, E, D, E, D, D,2 | 
D,2 C,2D,4 :|]  



